X: 1805
T: The Hurler's March
M:2/4
L:1/16
B:O'Neill's 1805
N:"collected by F. O'Neill"
Z:"Transcribed by Bob Safranek, rjs@gsp.org"
K:D
   (AG) | F2A2 ABAF | G2B2   BcBG    | F2A2 efed | c2A2 ABAG |
          F2A2 ABAF | G2B2 B2((3ABc) | dedc ABAG | F2D2 D2  :|
|: (de) | f2d2 f2d2 | fdfg   a2a2    | ecAc ecAc | e2f2 g2ag |
          f2d2 f2d2 | fdfg   a2a2    | dedc ABAG | F2D2 D2  :|


